src/assets/svg/shop-cat-icon.svg

<svg width="33" height="33" viewBox="0 0 33 33" fill="none" xmlns="http://www.w3.org/2000/svg">
<path d="M30.25 13.4062C29.6863 13.4062 29.2188 12.9388 29.2188 12.375V9.625C29.2188 6.0775 26.9225 3.78125 23.375 3.78125H9.625C6.0775 3.78125 3.78125 6.0775 3.78125 9.625V12.375C3.78125 12.9388 3.31375 13.4062 2.75 13.4062C2.18625 13.4062 1.71875 12.9388 1.71875 12.375V9.625C1.71875 4.895 4.895 1.71875 9.625 1.71875H23.375C28.105 1.71875 31.2812 4.895 31.2812 9.625V12.375C31.2812 12.9388 30.8137 13.4062 30.25 13.4062Z" fill="#00C700"/>
<path d="M23.375 31.2812H9.625C4.895 31.2812 1.71875 28.105 1.71875 23.375V20.625C1.71875 20.0613 2.18625 19.5938 2.75 19.5938C3.31375 19.5938 3.78125 20.0613 3.78125 20.625V23.375C3.78125 26.9225 6.0775 29.2188 9.625 29.2188H23.375C26.9225 29.2188 29.2188 26.9225 29.2188 23.375V20.625C29.2188 20.0613 29.6863 19.5938 30.25 19.5938C30.8137 19.5938 31.2812 20.0613 31.2812 20.625V23.375C31.2812 28.105 28.105 31.2812 23.375 31.2812Z" fill="#00C700"/>
<path d="M22.5507 11.2891L17.3807 8.49781C16.8307 8.20906 16.1845 8.20906 15.6345 8.49781L10.4507 11.2891C10.0795 11.4953 9.8457 11.8941 9.8457 12.3341C9.8457 12.7878 10.0795 13.1866 10.4507 13.3928L15.6207 16.1841C15.8957 16.3353 16.1982 16.4041 16.5007 16.4041C16.8032 16.4041 17.1057 16.3353 17.3807 16.1841L22.5507 13.3928C22.922 13.1866 23.1557 12.7878 23.1557 12.3341C23.1557 11.8941 22.922 11.4953 22.5507 11.2891Z" fill="#00C700"/>
<path d="M14.7675 17.1466L9.955 14.7403C9.58375 14.5616 9.1575 14.5753 8.8 14.7953C8.45625 15.0153 8.25 15.3866 8.25 15.7991V20.3503C8.25 21.1341 8.69 21.8491 9.39125 22.1928L14.2037 24.5991C14.3688 24.6816 14.5475 24.7228 14.74 24.7228C14.96 24.7228 15.1663 24.6678 15.3588 24.5441C15.7162 24.3241 15.9225 23.9528 15.9225 23.5403V18.9891C15.9088 18.2053 15.4825 17.5041 14.7675 17.1466Z" fill="#00C700"/>
<path d="M24.1859 14.7953C23.8284 14.5753 23.4021 14.5616 23.0309 14.7403L18.2184 17.1466C17.5171 17.5041 17.0771 18.2053 17.0771 18.9891V23.5403C17.0771 23.9528 17.2834 24.3241 17.6409 24.5441C17.8334 24.6678 18.0396 24.7228 18.2596 24.7228C18.4384 24.7228 18.6171 24.6816 18.7959 24.5991L23.6084 22.1928C24.3096 21.8353 24.7496 21.1341 24.7496 20.3503V15.7991C24.7496 15.3866 24.5434 15.0153 24.1859 14.7953Z" fill="#00C700"/>
</svg>

<svg xmlns="http://www.w3.org/2000/svg" width="33" height="33" fill="none"><path fill="#00C700" d="M30.25 13.406a1.04 1.04 0 0 1-1.031-1.031v-2.75c0-3.548-2.297-5.844-5.844-5.844H9.625c-3.548 0-5.844 2.296-5.844 5.844v2.75c0 .564-.467 1.031-1.031 1.031a1.04 1.04 0 0 1-1.031-1.031v-2.75c0-4.73 3.176-7.906 7.906-7.906h13.75c4.73 0 7.906 3.176 7.906 7.906v2.75c0 .564-.467 1.031-1.031 1.031m-6.875 17.875H9.625c-4.73 0-7.906-3.176-7.906-7.906v-2.75c0-.564.467-1.031 1.031-1.031s1.031.467 1.031 1.031v2.75c0 3.547 2.296 5.844 5.844 5.844h13.75c3.547 0 5.844-2.297 5.844-5.844v-2.75c0-.564.467-1.031 1.031-1.031s1.031.467 1.031 1.031v2.75c0 4.73-3.176 7.906-7.906 7.906"/><path fill="#00C700" d="m22.55 11.29-5.17-2.792a1.87 1.87 0 0 0-1.745 0l-5.184 2.791a1.19 1.19 0 0 0-.605 1.045c0 .454.233.853.605 1.059l5.17 2.791c.275.151.577.22.88.22.302 0 .605-.069.88-.22l5.17-2.791c.371-.206.605-.605.605-1.059 0-.44-.234-.839-.605-1.045m-7.783 5.858L9.955 14.74a1.19 1.19 0 0 0-1.155.055c-.344.22-.55.592-.55 1.004v4.551c0 .784.44 1.5 1.141 1.843l4.813 2.406q.247.124.536.124c.22 0 .426-.055.619-.179.357-.22.563-.591.563-1.004v-4.55a2.08 2.08 0 0 0-1.155-1.843m9.419-2.352a1.19 1.19 0 0 0-1.155-.055l-4.813 2.407a2.06 2.06 0 0 0-1.14 1.842v4.551c0 .413.205.784.563 1.004.192.124.399.179.619.179q.267 0 .536-.124l4.812-2.406a2.06 2.06 0 0 0 1.142-1.843V15.8c0-.413-.207-.785-.564-1.005"/></svg>
